icons/4_Outdated/omg.lol v1.svg

<svg width="1024" height="1024" viewBox="0 0 1024 1024" fill="none" xmlns="http://www.w3.org/2000/svg">
<g clip-path="url(#clip0_3_611)">
<path d="M512 1024C794.77 1024 1024 794.77 1024 512C1024 229.23 794.77 0 512 0C229.23 0 0 229.23 0 512C0 794.77 229.23 1024 512 1024Z" fill="#728DBE"/>
<path d="M239.65 458.121C272.72 458.121 294.76 481.471 294.76 511.341C294.76 541.941 272.76 565.871 239.65 565.871C206.54 565.871 184.65 541.941 184.65 511.341C184.69 481.471 206.59 458.121 239.65 458.121ZM239.65 538.031C253.57 538.031 263.14 526.571 263.14 511.351C263.14 496.851 253.57 485.971 239.65 485.971C225.73 485.971 216.3 496.851 216.3 511.351C216.3 526.581 225.87 538.001 239.65 538.001V538.031ZM308.9 469.031C309.48 462.941 312.82 459.891 318.76 459.891H335.44C340.95 459.891 344.58 462.361 346.03 467.721L354.15 498.171C356.15 505.571 359.52 519.491 359.52 519.491H359.81C359.81 519.491 363 505.401 365 498.151L373.12 467.701C374.57 462.331 378.2 459.871 383.71 459.871H400.39C406.48 459.871 409.82 462.871 410.25 469.011L417.25 554.281C417.83 560.521 414.49 564.141 408.25 564.141H397.07C390.98 564.141 387.5 561.141 387.21 555.001L385.62 525.851C385.19 517.151 385.76 502.211 385.76 502.211H385.47C385.47 502.211 381.26 518.741 379.52 525.851L375.75 540.641C373.86 545.861 370.38 548.181 364.87 548.181H354.29C348.78 548.181 345.44 545.861 343.56 540.641L339.79 525.851C337.9 518.601 333.84 502.361 333.84 502.361H333.55C333.55 502.361 334.28 517.151 333.7 525.851L332 555.001C331.56 561.091 328.23 564.141 322.28 564.141H310.78C304.69 564.141 301.35 560.511 301.93 554.281L308.9 469.031ZM481.63 458.151C497.87 458.151 511.07 464.101 515.28 467.151C520.5 470.921 521.08 474.691 517.75 480.201L513.25 487.451C509.91 492.671 505.85 492.961 500.05 490.061C495.12 487.741 491.05 486.001 483.66 486.001C464.23 486.001 457.56 498.181 457.56 510.941C457.56 528.201 470.03 538.061 483.37 538.061C496.28 538.061 500.92 531.821 500.92 531.821V528.191H496.71C490.47 528.191 487.28 524.851 487.28 518.621V511.621C487.28 505.381 490.47 502.191 496.71 502.191H518.32C524.56 502.191 527.89 505.381 527.89 511.621V554.691C527.89 560.781 524.55 564.121 518.32 564.121H512.66C506.42 564.121 503.23 560.781 503.23 556.871V558.171C503.207 557.966 503.261 557.759 503.38 557.591H503.09C503.09 557.591 494.68 565.861 477.42 565.861C451.17 565.861 425.94 546.281 425.94 512.781C425.94 480.601 449 458.121 481.63 458.121V458.151ZM535.55 545.151C535.55 538.911 538.74 535.721 544.98 535.721H553.83C560.07 535.721 563.4 538.911 563.4 545.151V554.001C563.4 560.091 560.06 563.431 553.83 563.431H545C538.76 563.431 535.57 560.091 535.57 554.001L535.55 545.151ZM576.65 469.471C576.65 463.231 579.99 460.041 586.22 460.041H597.82C604.06 460.041 607.25 463.231 607.25 469.471V538.211H638.43C644.67 538.211 648 541.551 648 547.641V554.891C648 560.981 644.66 564.321 638.43 564.321H586.22C579.98 564.321 576.65 560.981 576.65 554.891V469.471ZM702.29 458.151C735.36 458.151 757.4 481.501 757.4 511.371C757.4 541.971 735.4 565.901 702.29 565.901C669.18 565.901 647.29 541.971 647.29 511.371C647.33 481.471 669.23 458.121 702.29 458.121V458.151ZM702.29 538.061C716.21 538.061 725.78 526.601 725.78 511.381C725.78 496.881 716.21 486.001 702.29 486.001C688.37 486.001 678.94 496.881 678.94 511.381C678.94 526.581 688.52 538.001 702.29 538.001V538.061ZM768 469.291C768 463.051 771.34 459.861 777.57 459.861H789.17C795.41 459.861 798.6 463.051 798.6 469.291V538.001H829.78C836.02 538.001 839.35 541.341 839.35 547.431V554.681C839.35 560.771 836.01 564.111 829.78 564.111H777.53C771.29 564.111 767.96 560.771 767.96 554.681L768 469.291Z" fill="white"/>
</g>
<defs>
<clipPath id="clip0_3_611">
<rect width="1024" height="1024" fill="white"/>
</clipPath>
</defs>
</svg>

<svg xmlns="http://www.w3.org/2000/svg" viewBox="0 0 1024 1024">
   <circle cx="512" cy="512" r="512" style="fill:#1864ab"/>
   <path d="M239.65 458.12c33.07 0 55.11 23.35 55.11 53.22 0 30.6-22 54.53-55.11 54.53s-55-23.93-55-54.53c.04-29.87 21.94-53.22 55-53.22Zm0 79.91c13.92 0 23.49-11.46 23.49-26.68 0-14.5-9.57-25.38-23.49-25.38s-23.35 10.88-23.35 25.38c0 15.23 9.57 26.65 23.35 26.65Zm69.25-69c.58-6.09 3.92-9.14 9.86-9.14h16.68c5.51 0 9.14 2.47 10.59 7.83l8.12 30.45c2 7.4 5.37 21.32 5.37 21.32h.29S363 505.4 365 498.15l8.12-30.45c1.45-5.37 5.08-7.83 10.59-7.83h16.68c6.09 0 9.43 3 9.86 9.14l7 85.27c.58 6.24-2.76 9.86-9 9.86h-11.18c-6.09 0-9.57-3-9.86-9.14l-1.59-29.15c-.43-8.7.14-23.64.14-23.64h-.29s-4.21 16.53-5.95 23.64l-3.77 14.79c-1.89 5.22-5.37 7.54-10.88 7.54h-10.58c-5.51 0-8.85-2.32-10.73-7.54l-3.77-14.79c-1.89-7.25-5.95-23.49-5.95-23.49h-.29s.73 14.79.15 23.49L332 555c-.44 6.09-3.77 9.14-9.72 9.14h-11.5c-6.09 0-9.43-3.63-8.85-9.86Zm172.73-10.88c16.24 0 29.44 5.95 33.65 9 5.22 3.77 5.8 7.54 2.47 13.05l-4.5 7.25c-3.34 5.22-7.4 5.51-13.2 2.61-4.93-2.32-9-4.06-16.39-4.06-19.43 0-26.1 12.18-26.1 24.94 0 17.26 12.47 27.12 25.81 27.12 12.91 0 17.55-6.24 17.55-6.24v-3.63h-4.21c-6.24 0-9.43-3.34-9.43-9.57v-7c0-6.24 3.19-9.43 9.43-9.43h21.61c6.24 0 9.57 3.19 9.57 9.43v43.07c0 6.09-3.34 9.43-9.57 9.43h-5.66c-6.24 0-9.43-3.34-9.43-7.25v1.3a.84.84 0 0 1 .15-.58h-.29s-8.41 8.27-25.67 8.27c-26.25 0-51.48-19.58-51.48-53.08 0-32.18 23.06-54.66 55.69-54.66Zm53.92 87c0-6.24 3.19-9.43 9.43-9.43h8.85c6.24 0 9.57 3.19 9.57 9.43V554c0 6.09-3.34 9.43-9.57 9.43H545c-6.24 0-9.43-3.34-9.43-9.43Zm41.1-75.68c0-6.24 3.34-9.43 9.57-9.43h11.6c6.24 0 9.43 3.19 9.43 9.43v68.74h31.18c6.24 0 9.57 3.34 9.57 9.43v7.25c0 6.09-3.34 9.43-9.57 9.43h-52.21c-6.24 0-9.57-3.34-9.57-9.43Zm125.64-11.32c33.07 0 55.11 23.35 55.11 53.22 0 30.6-22 54.53-55.11 54.53s-55-23.93-55-54.53c.04-29.9 21.94-53.25 55-53.25Zm0 79.91c13.92 0 23.49-11.46 23.49-26.68 0-14.5-9.57-25.38-23.49-25.38s-23.35 10.88-23.35 25.38c0 15.2 9.58 26.62 23.35 26.62ZM768 469.29c0-6.24 3.34-9.43 9.57-9.43h11.6c6.24 0 9.43 3.19 9.43 9.43V538h31.18c6.24 0 9.57 3.34 9.57 9.43v7.25c0 6.09-3.34 9.43-9.57 9.43h-52.25c-6.24 0-9.57-3.34-9.57-9.43Z" style="fill:#fff"/>
</svg>
